; generated by PrusaSlicer 2.8.0+linux-x64-GTK3 on 2024-09-05 at 18:04:21 UTC


;
;

;
;
; 

; external perimeters extrusion width = 0.45mm
; perimeters extrusion width = 0.45mm
; infill extrusion width = 0.45mm
; solid infill extrusion width = 0.45mm
; top infill extrusion width = 0.42mm
; first layer extrusion width = 0.50mm

M190 S60 ; set bed temperature and wait for it to be reached
;TYPE:Custom
M220 S100 ;Reset Feedrate
M221 S100 ;Reset Flowrate

G28 ;Home

G92 E0 ;Reset Extruder
G1 Z2.0 F3000 ;Move Z Axis up
G1 X-2.0 Y20 Z0.28 F5000.0 ;Move to start position
M109 S200
G1 X-2.0 Y145.0 Z0.28 F1500.0 E15 ;Draw the first line
G1 X-1.7 Y145.0 Z0.28 F5000.0 ;Move to side a little
G1 X-1.7 Y20 Z0.28 F1500.0 E30 ;Draw the second line
G92 E0 ;Reset Extruder
G1 E-1.0000 F1800 ;Retract a bit
G1 Z2.0 F3000 ;Move Z Axis up
G1 E0.0000 F1800
G21 ; set units to millimeters
G90 ; use absolute coordinates
M83 ; use relative distances for extrusion
; Filament gcode
M107
;LAYER_CHANGE
;Z:0.3
;HEIGHT:0.3
G1 E-.8 F2400
G1 Z.3 F18000
G1 X102.419 Y93.646
G1 Z.3
G1 E.8 F2400
M204 S2000
;TYPE:Skirt/Brim
;WIDTH:0.5
G1 X103.335 Y92.862 E.06289
G1 X104.583 Y92.032 E.07818
G1 X105.66 Y91.491 E.06286
G1 X107.07 Y90.984 E.07815
G1 X108.228 Y90.72 E.06195
G1 X109.697 Y90.565 E.07705
G1 X110.901 Y90.581 E.06281
G1 X111.708 Y90.645 E.04222
G1 X113.591 Y91.098 E.10102
G1 X114.984 Y91.654 E.07823
G1 X116.025 Y92.224 E.0619
G1 X117.227 Y93.082 E.07703
G1 X118.131 Y93.905 E.06377
G1 X119.122 Y95.059 E.07934
G1 X119.789 Y96.063 E.06287
G1 X120.462 Y97.402 E.07817
G1 X120.87 Y98.537 E.06291
G1 X121.203 Y99.998 E.07816
G1 X121.359 Y101.878 E.0984
G1 X121.072 Y118.445 E.86426
G1 X120.848 Y120.387 E.10197
G1 X120.463 Y121.836 E.0782
G1 X120.016 Y122.955 E.06285
G1 X119.297 Y124.27 E.07817
G1 X118.595 Y125.25 E.06288
G1 X117.581 Y126.355 E.07823
G1 X116.08 Y127.579 E.10102
G1 X114.34 Y128.509 E.10291
G1 X112.929 Y129.016 E.0782
G1 X111.772 Y129.28 E.0619
G1 X110.303 Y129.435 E.07705
G1 X109.08 Y129.418 E.0638
G1 X107.574 Y129.211 E.07929
G1 X106.409 Y128.903 E.06285
G1 X105.016 Y128.346 E.07825
G1 X103.959 Y127.768 E.06284
G1 X102.741 Y126.895 E.07816
G1 X101.852 Y126.08 E.06291
G1 X100.878 Y124.941 E.07817
G1 X99.844 Y123.303 E.10104
G1 X99.531 Y122.581 E.04105
G1 X99.13 Y121.464 E.0619
G1 X98.797 Y120.002 E.07821
G1 X98.64 Y118.053 E.10199
G1 X98.928 Y101.556 E.86061
G1 X99.15 Y99.631 E.10107
G1 X99.526 Y98.203 E.07702
G1 X99.969 Y97.082 E.06287
G1 X100.684 Y95.765 E.07816
G1 X101.392 Y94.768 E.06378
G1 X102.378 Y93.69 E.0762
G1 E-.8
M204 S5000
G1 X102.378 Y93.69 F18000
G1 X112.497 Y118.191
G1 E.8 F2400
M204 S2000
;TYPE:External perimeter
;WIDTH:0.484117
G1 X112.22 Y117.311 E.04637
;WIDTH:0.497205
G1 X112.095 Y116.153 E.06036
;WIDTH:0.500913
G1 X112.22 Y115.116 E.0546
G1 X112.558 Y114.116 E.05517
G1 E-.8
M204 S5000
G1 X112.558 Y114.116 F18000
G1 X112.498 Y118.244
G1 E.8 F2400
M204 S2000
;WIDTH:0.5
G1 X112.429 Y118.907 E.03477
G1 X112.184 Y119.581 E.03741
G1 X111.784 Y120.175 E.03735
G1 X111.289 Y120.623 E.03482
G1 X110.688 Y120.958 E.03589
G1 X110.031 Y121.143 E.0356
G1 X109.873 Y121.175 E.00841
G1 X109.167 Y121.168 E.03683
G1 X108.464 Y120.983 E.03792
G1 X107.879 Y120.669 E.03463
G1 X107.384 Y120.23 E.03451
G1 X106.942 Y119.606 E.03989
G1 X106.688 Y118.93 E.03767
G1 X106.608 Y118.22 E.03727
G1 X106.682 Y113.87 E.22693
G1 X106.776 Y113.188 E.03591
G1 X107.038 Y112.52 E.03743
G1 X107.453 Y111.936 E.03737
G1 X107.997 Y111.469 E.0374
G1 X108.648 Y111.145 E.03793
G1 X109.337 Y110.989 E.03685
G1 X110.054 Y111.005 E.03741
G1 X110.746 Y111.193 E.0374
G1 X111.372 Y111.543 E.03741
G1 X111.895 Y112.033 E.03738
G1 X112.284 Y112.635 E.03739
G1 X112.516 Y113.313 E.03738
G1 X112.56 Y113.832 E.02717
;WIDTH:0.494916
G1 X112.586 Y114.033 E.01045
G1 X112.651 Y113.854 E.00982
;WIDTH:0.5
G1 X113.232 Y112.955 E.05583
G1 X113.355 Y112.907 E.00689
G1 X113.55 Y112.952 E.01044
G1 X113.706 Y113.164 E.01373
G1 X113.601 Y119.149 E.31222
G1 X113.569 Y119.26 E.00603
G1 X113.439 Y119.356 E.00843
G1 X113.198 Y119.385 E.01266
G1 X113.075 Y119.287 E.0082
G1 X112.553 Y118.38 E.05458
;WIDTH:0.49208
G1 X112.521 Y118.3 E.00441
G1 X112.447 Y118.693 F18000
G1 E-.8 F2400
M204 S5000
G1 X107.077 Y100.938 F18000
G1 E.8 F2400
M204 S2000
;TYPE:Perimeter
;WIDTH:0.5
G1 X107.316 Y100.293 E.03588
G1 X107.797 Y99.596 E.04417
G1 X108.317 Y99.146 E.03587
G1 X108.994 Y98.784 E.04004
G1 X109.729 Y98.597 E.03956
G1 X110.502 Y98.59 E.04032
G1 X111.251 Y98.768 E.04016
G1 X111.932 Y99.119 E.03996
G1 X112.51 Y99.624 E.04003
G1 X112.951 Y100.252 E.04003
G1 X113.228 Y100.967 E.03999
G1 X113.326 Y101.728 E.04002
G1 X113.239 Y102.49 E.04
G1 X112.972 Y103.209 E.04001
G1 X112.541 Y103.844 E.04003
G1 X111.971 Y104.357 E.04
G1 X111.294 Y104.718 E.04002
G1 X110.689 Y104.876 E.03261
G1 X110.394 Y104.924 E.01559
G1 X109.784 Y104.913 E.03182
G1 X109.037 Y104.735 E.04005
G1 X108.356 Y104.383 E.03999
G1 X107.778 Y103.879 E.04
G1 X107.337 Y103.251 E.04003
G1 X107.06 Y102.535 E.04004
G1 X106.963 Y101.763 E.04058
G1 X107.049 Y101.012 E.03943
G1 X107.056 Y100.994 E.00101
M204 S5000
G1 X107.056 Y100.994 F18000
G1 X107.49 Y101.048
M204 S2000
;TYPE:External perimeter
G1 F2400
G1 X107.72 Y100.455 E.03318
G1 X108.118 Y99.892 E.03596
G1 X108.6 Y99.477 E.03318
G1 X109.19 Y99.174 E.0346
G1 X109.825 Y99.022 E.03406
G1 X110.496 Y99.025 E.035
G1 X111.139 Y99.189 E.03461
G1 X111.723 Y99.501 E.03454
G1 X112.216 Y99.945 E.03461
G1 X112.588 Y100.493 E.03455
G1 X112.818 Y101.115 E.03459
G1 X112.893 Y101.773 E.03454
G1 X112.808 Y102.43 E.03455
G1 X112.568 Y103.048 E.03458
G1 X112.187 Y103.59 E.03456
G1 X111.688 Y104.026 E.03456
G1 X111.098 Y104.329 E.0346
G1 X110.592 Y104.451 E.02715
G1 X110.212 Y104.485 E.0199
G1 X109.739 Y104.47 E.02468
G1 X109.149 Y104.314 E.03183
G1 X108.565 Y104.001 E.03456
G1 X108.072 Y103.558 E.03457
G1 X107.7 Y103.009 E.03459
G1 X107.47 Y102.388 E.03454
G1 X107.396 Y101.72 E.03506
G1 X107.476 Y101.106 E.0323
G1 X107.614 Y100.73 F18000
G1 E-.8 F2400
M204 S5000
G1 X114.2 Y113.173 F18000
G1 E.8 F2400
M204 S2000
;TYPE:Perimeter
;WIDTH:0.618451
G1 X114.111 Y118.278 E.33873
G1 X114.088 Y118.571 E.0195
;WIDTH:0.582961
G1 X114.066 Y118.864 E.01824
;WIDTH:0.547471
G1 X114.043 Y119.157 E.017
;WIDTH:0.516101
G1 X113.998 Y119.391 E.01289
;WIDTH:0.526123
G1 X113.95 Y119.496 E.00638
G1 E-.8
M204 S5000
G1 X113.95 Y119.496 F18000
G1 X110.799 Y97.503
G1 E.8 F2400
M204 S2000
;WIDTH:0.5
G1 X111.743 Y97.75 E.0509
G1 X112.653 Y98.248 E.05411
G1 X113.419 Y98.95 E.05419
G1 X113.948 Y99.746 E.04985
G1 X114.063 Y100.016 E.01531
G1 X114.353 Y100.863 E.0467
G1 X114.457 Y101.868 E.0527
G1 X114.278 Y112.094 E.53346
;WIDTH:0.539483
G1 X114.252 Y112.454 E.02053
;WIDTH:0.578967
G1 X114.226 Y112.813 E.02218
;WIDTH:0.618451
G1 X114.2 Y113.173 E.02395
G1 X114.026 Y112.96 E.01825
;WIDTH:0.578967
G1 X113.851 Y112.747 E.01699
;WIDTH:0.539483
G1 X113.676 Y112.535 E.01564
;WIDTH:0.5
G1 X113.327 Y112.472 E.0185
G1 X113.094 Y112.532 E.01255
G1 X112.959 Y112.616 E.00829
G1 X112.817 Y112.774 E.01108
G1 X112.652 Y112.402 E.02123
G1 X112.195 Y111.718 E.04291
G1 X111.587 Y111.165 E.04287
G1 X110.864 Y110.774 E.04287
G1 X110.067 Y110.57 E.04291
G1 X109.245 Y110.564 E.04288
G1 X108.458 Y110.753 E.04222
G1 X107.716 Y111.136 E.04355
G1 X107.1 Y111.68 E.04287
G1 X106.634 Y112.357 E.04287
;WIDTH:0.546841
G1 X106.514 Y112.611 E.01623
;WIDTH:0.593682
G1 X106.395 Y112.864 E.01772
;WIDTH:0.640523
G1 X106.275 Y113.117 E.01932
G1 X106.198 Y113.862 E.05167
;WIDTH:0.596512
G1 X106.13 Y118.271 E.28096
;WIDTH:0.597569
G1 X106.233 Y119.096 E.05308
;WIDTH:0.614088
G1 X106.533 Y119.881 E.05531
;WIDTH:0.637925
G1 X107.046 Y120.604 E.06088
;WIDTH:0.667632
G1 X107.715 Y121.171 E.06334
;WIDTH:0.670129
G1 X108.218 Y121.442 E.04144
;WIDTH:0.701407
G1 X108.493 Y121.55 E.02254
;WIDTH:0.70428
G1 X109.025 Y121.686 E.04207
G1 X109.099 Y121.671 E.00579
;WIDTH:0.663424
G1 X109.172 Y121.655 E.00536
;WIDTH:0.622568
G1 X109.246 Y121.64 E.00505
;WIDTH:0.581712
G1 X109.32 Y121.624 E.00469
;WIDTH:0.540856
G1 X109.394 Y121.608 E.00432
;WIDTH:0.5
G1 X110.029 Y121.592 E.03313
G1 X110.674 Y121.435 E.03463
G1 X110.89 Y121.344 E.01223
G1 X111.578 Y120.949 E.04138
G1 X112.143 Y120.422 E.0403
G1 X112.519 Y119.874 E.03466
G1 X112.676 Y119.51 E.02068
G1 X112.835 Y119.671 E.0118
G1 X112.967 Y119.76 E.0083
G1 X113.317 Y119.828 E.0186
G1 X113.549 Y119.778 E.01238
;WIDTH:0.526123
G1 X113.95 Y119.496 E.0271
G1 X113.636 Y120.318 E.04865
;WIDTH:0.5
G1 X113.031 Y121.162 E.05416
G1 X112.255 Y121.827 E.0533
G1 X111.312 Y122.304 E.05512
G1 X110.301 Y122.535 E.05409
G1 X109.384 Y122.519 E.04784
;WIDTH:0.540856
G1 X109.28 Y122.476 E.00642
;WIDTH:0.581712
G1 X109.176 Y122.434 E.00695
;WIDTH:0.622568
G1 X109.072 Y122.391 E.00752
;WIDTH:0.663424
G1 X108.968 Y122.348 E.00807
;WIDTH:0.70428
G1 X108.333 Y122.167 E.05059
;WIDTH:0.701407
G1 X107.93 Y121.974 E.03408
;WIDTH:0.670129
G1 X107.428 Y121.701 E.04145
;WIDTH:0.667632
G1 X107.109 Y121.439 E.02982
;WIDTH:0.639982
G1 X106.66 Y121.028 E.04195
;WIDTH:0.637925
G1 X106.441 Y120.734 E.02518
;WIDTH:0.615647
G1 X106.076 Y120.186 E.04346
;WIDTH:0.614088
G1 X105.956 Y119.901 E.02035
;WIDTH:0.598526
G1 X105.731 Y119.277 E.04242
;WIDTH:0.597569
G1 X105.676 Y118.983 E.0191
;WIDTH:0.596512
G1 X105.591 Y118.13 E.05462
G1 X105.666 Y113.852 E.27262
;WIDTH:0.600112
G1 X105.67 Y113.734 E.00757
;WIDTH:0.640523
G1 X105.702 Y113.072 E.04572
G1 X105.682 Y112.947 E.00873
;WIDTH:0.596327
G1 X105.662 Y112.822 E.00806
;WIDTH:0.552132
G1 X105.655 Y112.489 E.01945
;WIDTH:0.526066
G1 X105.647 Y112.157 E.01836
;WIDTH:0.5
G1 X105.83 Y101.717 E.54463
G1 X105.978 Y100.647 E.05634
G1 X106.358 Y99.698 E.05332
G1 X106.97 Y98.837 E.0551
G1 X107.758 Y98.163 E.05409
G1 X108.686 Y97.696 E.05419
G1 X109.699 Y97.465 E.05419
G1 X110.721 Y97.483 E.05332
G1 X110.741 Y97.488 E.00108
M204 S5000
G1 X110.741 Y97.488 F18000
G1 X110.809 Y97.056
M204 S2000
;TYPE:External perimeter
G1 F2400
G1 X111.905 Y97.342 E.05908
G1 X112.909 Y97.891 E.05969
G1 X113.752 Y98.665 E.05969
G1 X114.376 Y99.604 E.05881
G1 X114.681 Y100.441 E.04647
G1 X114.786 Y100.818 E.02041
G1 X114.893 Y101.849 E.05407
G1 X114.606 Y118.317 E.85909
G1 X114.446 Y119.465 E.06046
G1 X114.021 Y120.528 E.05971
G1 X113.355 Y121.459 E.05971
G1 X112.498 Y122.191 E.05879
G1 X111.462 Y122.717 E.0606
G1 X110.346 Y122.972 E.05971
G1 X109.31 Y122.953 E.05405
G1 X108.726 Y122.826 E.03117
G1 X108.095 Y122.658 E.03406
G1 X107.091 Y122.109 E.05969
G1 X106.248 Y121.335 E.05969
G1 X105.614 Y120.382 E.0597
G1 X105.227 Y119.304 E.05974
G1 X105.107 Y118.151 E.06046
G1 X105.394 Y101.684 E.85904
G1 X105.554 Y100.535 E.06051
G1 X105.972 Y99.488 E.0588
G1 X106.646 Y98.541 E.06063
G1 X107.515 Y97.797 E.05967
G1 X108.538 Y97.283 E.05972
G1 X109.654 Y97.028 E.05971
G1 X110.75 Y97.048 E.05718
G1 X111.139 Y97.143 F18000
G1 E-.8 F2400
M204 S5000
G1 X113.872 Y99.874 F18000
G1 E.8 F2400
M204 S2000
;TYPE:Solid infill
;WIDTH:0.511286
G1 X113.087 Y99.089 E.05941
G1 X112.462 Y98.516 E.04537
G1 X111.622 Y98.056 E.05125
G1 X111.351 Y97.985 E.01499
G1 X113.905 Y100.54 E.19331
G1 X114.025 Y100.868 E.01869
G1 X114.074 Y101.34 E.02539
G1 X113.493 Y100.759 E.04397
G1 X113.278 Y100.163 E.0339
G1 X112.814 Y99.468 E.04472
G1 X112.277 Y98.966 E.03934
G1 X112.095 Y98.836 E.01197
G1 X111.548 Y98.536 E.03338
G1 X111.34 Y98.454 E.01196
G1 X111.135 Y98.402 E.01132
G1 X110.54 Y97.806 E.04506
G1 X109.897 Y97.795 E.03441
G1 X110.368 Y98.266 E.03564
G1 X109.737 Y98.268 E.03377
G1 X109.354 Y97.885 E.02898
G1 X108.835 Y97.998 E.02842
G1 X109.222 Y98.384 E.02925
G1 X108.956 Y98.445 E.0146
G1 X108.751 Y98.546 E.01223
G1 X108.408 Y98.202 E.02599
G1 X107.987 Y98.413 E.0252
G1 X108.328 Y98.754 E.02581
G1 X108.11 Y98.893 E.01383
G1 X107.962 Y99.02 E.01044
G1 X107.637 Y98.696 E.02456
G1 X107.297 Y98.987 E.02395
G1 X107.623 Y99.313 E.02467
G1 X107.485 Y99.463 E.01091
G1 X107.343 Y99.666 E.01326
G1 X107.015 Y99.337 E.02486
G1 X106.752 Y99.707 E.02429
G1 X107.083 Y100.037 E.02501
G1 X106.895 Y100.481 E.0258
G1 X106.539 Y100.125 E.02694
G1 X106.358 Y100.577 E.02605
G1 X106.734 Y100.953 E.02845
G1 X106.661 Y101.512 E.03017
G1 X106.246 Y101.096 E.03144
G1 X106.169 Y101.651 E.02998
G1 X106.893 Y102.376 E.05483
G1 E-.8
M204 S5000
G1 X106.893 Y102.376 F18000
G1 X113.41 Y101.308
G1 E.8 F2400
M204 S2000
G1 X114.127 Y102.026 E.0543
G1 X114.117 Y102.647 E.03323
G1 X113.616 Y102.147 E.03788
G1 X113.525 Y102.687 E.0293
G1 X114.106 Y103.268 E.04397
G1 X114.095 Y103.889 E.03324
G1 X113.35 Y103.144 E.05638
G1 X113.273 Y103.337 E.01112
G1 X113.141 Y103.567 E.01419
G1 X114.084 Y104.51 E.07136
G1 X114.073 Y105.132 E.03329
G1 X112.877 Y103.936 E.09051
G1 X112.803 Y104.04 E.00683
G1 X112.577 Y104.268 E.01718
G1 X114.062 Y105.753 E.11238
G1 X114.052 Y106.374 E.03323
G1 X112.237 Y104.559 E.13735
G1 X111.992 Y104.733 E.01608
G1 X111.85 Y104.804 E.0085
G1 X114.041 Y106.995 E.16581
G1 X114.03 Y107.616 E.03324
G1 X111.429 Y105.015 E.19683
G1 X111.224 Y105.089 E.01166
G1 X110.933 Y105.151 E.01592
G1 X114.019 Y108.237 E.23354
G1 X114.008 Y108.859 E.03329
G1 X110.396 Y105.246 E.27338
G1 X109.754 Y105.237 E.03436
G1 X113.997 Y109.48 E.32109
G1 X113.987 Y110.101 E.03323
G1 X108.926 Y105.04 E.38299
G1 X108.74 Y104.966 E.01071
G1 X108.193 Y104.667 E.03336
G1 X108.011 Y104.537 E.01197
G1 X107.552 Y104.115 E.03336
G1 X107.407 Y103.945 E.01196
G1 X107.062 Y103.426 E.03335
G1 X106.961 Y103.227 E.01194
G1 X106.877 Y102.991 E.0134
G1 X106.147 Y102.261 E.05524
G1 X106.136 Y102.882 E.03324
G1 X113.976 Y110.722 E.5933
G1 X113.965 Y111.343 E.03324
G1 X106.125 Y103.504 E.59326
G1 X106.114 Y104.125 E.03324
G1 X113.954 Y111.965 E.5933
G1 X113.947 Y112.376 E.022
G1 X113.917 Y112.386 E.00169
G1 X113.805 Y112.232 E.01019
G1 X113.527 Y112.17 E.01524
G1 X106.103 Y104.746 E.56182
G1 X106.093 Y105.367 E.03323
G1 X113.12 Y112.394 E.53177
G1 E-.8
M204 S5000
G1 X113.12 Y112.394 F18000
G1 X110.681 Y110.588
G1 E.8 F2400
M204 S2000
G1 X106.082 Y105.988 E.34807
G1 X106.071 Y106.61 E.03329
G1 X109.699 Y110.237 E.27451
G1 X109.326 Y110.223 E.01997
G1 X109.098 Y110.269 E.01245
G1 X106.06 Y107.231 E.2299
G1 X106.049 Y107.852 E.03324
G1 X108.573 Y110.375 E.19097
G1 X108.32 Y110.456 E.01422
G1 X108.119 Y110.554 E.01197
G1 X106.038 Y108.473 E.15748
G1 X106.028 Y109.094 E.03323
G1 X107.695 Y110.762 E.12619
G1 X107.511 Y110.882 E.01175
G1 X107.333 Y111.032 E.01246
G1 X106.017 Y109.715 E.09963
G1 X106.006 Y110.337 E.03329
G1 X106.99 Y111.321 E.07446
G1 X106.84 Y111.483 E.01181
G1 X106.706 Y111.668 E.01222
G1 X105.995 Y110.958 E.05377
G1 X105.984 Y111.579 E.03324
G1 X106.44 Y112.035 E.03451
G1 X106.227 Y112.454 E.02515
G1 X105.781 Y112.007 E.03379
G1 E-.8
M204 S5000
G1 X105.781 Y112.007 F18000
G1 X112.683 Y119.867
G1 E.8 F2400
M204 S2000
;WIDTH:0.510359
G1 X113.192 Y120.376 E.03844
G1 X112.929 Y120.744 E.02415
G1 X112.567 Y120.381 E.02738
G1 X112.398 Y120.628 E.01598
G1 X112.296 Y120.741 E.00813
G1 X112.63 Y121.075 E.02522
G1 X112.29 Y121.366 E.0239
G1 X111.966 Y121.042 E.02447
G1 X111.753 Y121.23 E.01517
G1 X111.617 Y121.324 E.00883
G1 X111.922 Y121.629 E.02303
G1 X111.504 Y121.841 E.02503
G1 X111.209 Y121.546 E.02228
G1 X110.968 Y121.672 E.01452
G1 X110.776 Y121.744 E.01095
G1 X111.059 Y122.027 E.02137
G1 X110.545 Y122.144 E.02815
G1 X110.269 Y121.868 E.02084
G1 X110.024 Y121.927 E.01346
G1 X109.701 Y121.931 E.01725
G1 X110.173 Y122.402 E.03561
;LAYER_CHANGE
;Z:0.5
;HEIGHT:0.2
;BEFORE_LAYER_CHANGE
G92 E0
;0.5


G1 Z.5 F18000
;AFTER_LAYER_CHANGE
;0.5
G1 E-.8 F2400
M204 S5000
G1 X110.173 Y122.402 Z.5 F18000
G1 X112.496 Y118.191
G1 E.8 F2400
M204 S2000
;TYPE:External perimeter
;WIDTH:0.484252
G1 F3485.946
G1 X112.22 Y117.312 E.03246
;WIDTH:0.49721
G1 F3379.461
G1 X112.095 Y116.154 E.04224
;WIDTH:0.50091
G1 F3568.969
G1 X112.22 Y115.116 E.03822
G1 F3433.136
G1 X112.557 Y114.118 E.03851
G1 E-.8 F2400
M204 S5000
G1 X112.557 Y114.118 F18000
G1 X112.495 Y118.202
G1 E.8 F2400
M204 S2000
;WIDTH:0.484252
G1 F4333.619
G1 X112.404 Y118.903 E.0249
;WIDTH:0.449999
G1 F4800
G1 X112.161 Y119.571 E.0231
G1 X111.764 Y120.16 E.02308
G1 X111.292 Y120.587 E.02068
G1 X110.673 Y120.937 E.02311
